!!!ONB: MCCC : ICS0079_04 : Extracted Monophonic Melody
!!!COM: Saint-Saëns, Camille
!!!OPR: Six Etudes pour piano
!!!OMV: 4
!!!SCT: Op.52
!!!ODT: 1877///
**kern
*staff1
=1
*clefG2
*k[b-e-a-]
*E-:
*M2/4
12ee-
24ee-
24e-
12ee-
12ee-
24ee-
24e-
12ee-
=2
2r
=3
2r
=4
2r
=5
12ee-
24ee-
24e-
12ee-
4ee-
=6
12ee-
24ee-
24e-
12ee-
4ee-
=7
12ee-
12ee-
12ee-
12ee-
12ee-
12ee-
=8
2r
=9
8ee-
8ee-
8ee-
8ee-
=10
2r
=11
8aa-
8gg
12ff
12dd
12ee-
=12
8gg
8ff
12ee-
12cc
12dd-
=13
8ff
8ee-
12dd-
12b
12cc
=14
8cc
8b-
12cc
12dd-
12ee-
=15
8aa-
8gg
12ff
12dd
12ee-
=16
8gg
8ff
12ee-
12cc
12dd-
=17
8ff
8ee-
12dd-
12b
12cc
=18
8cc
8a
12b-
12cc
12dd-
=19
8ff
8ee-
12dd-
12cc
12a
=20
8cc
8a
12b-
12cc
12dd-
=21
8ff
8ee-
12dd-
12cc
12a
=22
8cc
8a
12b-
12cc
12dd-
=23
8f
8d
12e-
12g
12f
=24
8f
8d
12e-
12g-
12f
=25
8e-
8d-
12c
12e-
12d-
=26
8.c
16B-
4A-
=27
12ee-
24ee-
24e-
12ee-
12ee-
24ee-
24e-
12ee-
=28
12ee-
12ee-
12ee-
12ee-
12ee-
12ee-
=29
12ee-
12ee-
12ee-
12ee-
12ee-
12ee-
=30
12ee-
12ee-
12ee-
12ee-
12ee-
12ee-
=31
12ee-
12ee-
12ee-
12ee-
12ee-
12ee-
=32
12ee-
12ee-
12ee-
12ee-
12ee-
12ee-
=33
12ee-
12ee-
12ee
8gg-
8ee
=34
4ee-
4r
=35
2r
=36
2eee-
=37
6ddd-
6eee-
6eee
=38
6eee-
6ddd-
6bb
=39
4.aa#
8bb
=40
4ddd-
4eee
=41
4bb-
4r
=42
12ee
12ee
12ee
8ff
8gg-
=43
12gg-
12gg-
12gg-
8gg
8aa-
=44
12bb-
12bb-
12bb
8ddd-
8ddd-
=45
12eee-
12eee-
12eee
8ggg-
8eee
=46
12eee-
12eee-
12eee
8ggg-
8eee
=47
12E
12D
12E-
8A-
8G
=48
12E
12D
12E-
8B
8B-
=49
12A-
12G-
12G
8e
8e-
=50
12d-
12B-
12B
8a-
8g
=51
12e
12d
12e-
12a-
12g-
12g
=52
12ee
12dd
12ee-
12aa-
12gg-
12gg
=53
12eee
12ddd
12eee-
12eee
12ddd
12eee-
=54
12eee
12ddd
12eee-
12eee
12ddd
12eee-
=55
12eee
12ddd
12eee-
12eee
12ddd
12eee-
=56
6eee
6ddd
6eee-
=57
6eee
6ddd
6eee-
=58
8aaa-
8ggg
12fff
12ddd
12eee-
=59
8ggg
8fff
12eee-
12ccc
12ddd-
=60
8fff
8eee-
12ddd-
12bb
12ccc
=61
8ccc
8bb-
12ccc
12ddd-
12eee-
=62
*M5/8
8aaa-
8aaa-
8ggg
8fff
16ddd
16eee-
=63
8ggg
8ggg
8fff
8eee-
16ccc
16ddd-
=64
8fff
8fff
8eee-
8ddd-
16bb
16ccc
=65
8aa
8bb-
8ccc
8ddd-[
16ddd-]
16eee-
=66
*M2/4
12eee
12eee
12eee
8eee
8eee
=67
12eee
12eee
12eee
8eee
8eee
=68
12eee
12eee
12eee
8eee
8eee
=69
2r
=70
8e
8e
12e
12e
12e
=71
8e
8e
12e
12e
12e
=72
2r
=73
12dd
24dd
24ee
12dd
12dd
12dd
12dd
=74
12dd
24dd
24ff
12dd
12dd
12dd
12dd
=75
12dd
24dd
24ee
12dd
12dd
12dd
12dd
=76
12dd
24dd
24ff
12dd
12dd
12dd
12dd
=77
8r
8fff
8r
8b
=78
8r
8fff
8r
8b
=79
8r
8fff
8r
8b
=80
4r
4f
=81
2f
=82
8d
8e-
12e
12g
12f
=83
2f[
=84
4f]
4e-
=85
12r
12c
12c
8r
8d-
=86
12r
12c
12c
8r
8d-
=87
8r
8c
12F
12D
12E-
=88
8B
8c
12f
12d
12e-
=89
8b
8cc
12ff
12dd
12ee-
=90
12bb-
12gg
12aa-
12fff
12ddd
12eee-
=91
12fff
12ddd
12eee-
12fff
12ddd
12eee-
=92
32fff
32ddd
32eee-
32fff
32ddd
32eee-
32fff
32ddd
32eee-
32fff
32ddd
32eee-
32fff
32ddd
32eee-
32fff
=93
32ddd
32eee-
32fff
32ddd
32eee-
32fff
32ddd
32eee-
32fff
32ddd
32eee-
32fff
32ddd
32eee-
32fff
32ddd
=94
48eee-
48fff
48eee-
48fff
48eee-
48fff
48eee-
48fff
48eee-
48fff
48eee-
48fff
48eee-
48fff
48eee-
48fff
48eee-
48fff
48eee-
48fff
48eee-
48fff
48eee-
48fff
=95
48eee-
48fff
48eee-
48fff
48eee-
48fff
48eee-
48fff
48eee-
48fff
48eee-
48fff
48eee-
48fff
48eee-
48fff
48eee-
48fff
16ddd
32eee-
32eee-
=96
8aa-
8aaa-
4r
==
*-
